X: 1
T: Meelick Team, The
M: 6/8
L: 1/8
R: jig
K: Emin
|:de{f}e dBA|BAG EDB,|B,DG Eed|BAG ABd|
~e3 dBA|BAG EDB,|B,DG Eed|BAF E3:|
|:~e3 gfe|beg fed|Beg beg|fed e2f|
~g3 edB|AFD FGA|d2e fed|BAF E3:|
